!!!OTL: Waldesjagd (3-53), S. 155
!!!id: P1025
**kern
*clefG2
*k[b-]
*F:
{8a
=1
8cc
8cc
8b-
8b-
=2
8a
8a
8g}
8r
=3
{8f
8e
8d
8e
=4
8f
8d
8c}
8r
=5
{8f
8f
8f
8f
=6
8e
8f
8g}
8r
=7
{8cc
8cc
8g
8r
=8
8f
8e
8f}
8r
=9
{8cc
8cc
8b-
8a
=10
8a
8a
8g
8g}
=11
{8f
8e
8d
8e
=12
16f
16e
8d
8c
8c}
=13
{8f
8f
8f
8f
=14
8e
8f
8g}
8r
=15
{8cc
8cc
8g
8g
=16
8f
8e
8f}
==
*-
!!!minrhy: 16
!!!meters: 2/4 ]  ZZ[8
!!!cut: Waldesjagd (3-53), S. 155
!!!reg: Lothringen
!!!trd: PINCK, Louis: Verklingende Weisen, Bd3, Metz 1933
!!!rhy1: X_  X_X_X_X_  X_X_X_0   (x2)
!!!rhy2: X_X_X_X_  X_X_X_0
!!!key: P1025  16  F 2/4 ]  ZZ[8
!!!mod: HEPTATONIK IONISCH]  AMBITUS[8
!!!kad: 2-5212-521
!!!akz: 53_11_1-7_51_53_11_1-7_51_
!!!fot: 'a__b__c__d__av_bv_c__dv_
!!!for: 'a__av_av_a__aw_b__av_av_
!!!fok: '^d_Sd_/__\__\__\__/__\__
!! PHRAS[VORWIEGEND VOLLTAKTIG]
!!!fkt: Jaglied
!! LOTH VKL
!! PR[36] 2K[3] 2G[0] 3K[8] 3G[6] 4A[3] 4Ü[0] 5A[0] 6K[0] 6G[0]
!! 7K[3] 7G[0] 8A[0] MEHR[0] SI[22] ABS[36] SR[3] SP[19]
!! ST[12] 2k[11] 2g[25] 3k[6] 3g[0] 4d[0] 4ü[0] 5d[0] 6k[0] 6g[0]
!! 7k[0] 7g[0] 8d[0] mehr[0] si[42] dm[-20] sr[36] sp[6]
!! 1F[11] 2F[62] 3F[19] 4F[0] LF[0] 2P[0] 3P[8] 4P[0] TRI[0] DF[4] AB[37]
!! TF[0] U3K[0] U3[0] U4[0] U4Ü[0] U5[11] U6K[0] U6[3] U7K[0] U7[8]
!! N1[22] N2K[0] N2[27] N3K[0] N3[16] N4[11] N4Ü[0] N5[3] N6K[0] N6[0]
!!!n7k: 0] N7[0] O1[0] O2K[0] O2[0] O3K[0] O3[0] HÖ[0
